world_stage/static/flags/BHR/square.svg

<svg height="1200" viewBox="0 0 1200 1200" width="1200" xmlns="http://www.w3.org/2000/svg"><path d="m0 1199.9997h1200v-1199.9997h-1200z" fill="#fff" stroke-width="1.09108"/><path d="m273.60775-.000267 307.34966 120.267237-307.34966 120.26723 307.34966 120.26723-307.34966 120.26724 307.34966 120.26724-307.34966 120.26723 307.34966 120.26723-307.34966 120.26724 307.34966 120.26719-300.51981 117.5946h919.5624v-1199.9994z" fill="#ce1126" stroke-width="1.3363"/></svg>

<?xml version="1.0" encoding="UTF-8" standalone="no"?>
<svg
   height="1200"
   viewBox="0 0 1200 1200"
   width="1200"
   version="1.1"
   id="svg2"
   sodipodi:docname="rect copy.svg"
   inkscape:version="1.4 (e7c3feb1, 2024-10-09)"
   xmlns:inkscape="http://www.inkscape.org/namespaces/inkscape"
   xmlns:sodipodi="http://sodipodi.sourceforge.net/DTD/sodipodi-0.dtd"
   xmlns="http://www.w3.org/2000/svg"
   xmlns:svg="http://www.w3.org/2000/svg">
  <defs
     id="defs2" />
  <sodipodi:namedview
     id="namedview2"
     pagecolor="#ffffff"
     bordercolor="#000000"
     borderopacity="0.25"
     inkscape:showpageshadow="2"
     inkscape:pageopacity="0.0"
     inkscape:pagecheckerboard="0"
     inkscape:deskcolor="#d1d1d1"
     inkscape:current-layer="svg2" />
  <path
     d="M 0,1199.9997 H 1200 V 0 H 0 Z"
     fill="#ffffff"
     id="path1"
     style="stroke-width:1.09108" />
  <path
     d="M 273.60775,-2.67e-4 580.95741,120.26697 273.60775,240.5342 580.95741,360.80143 273.60775,481.06867 580.95741,601.33591 273.60775,721.60314 580.95741,841.87037 273.60775,962.13761 580.95741,1082.4048 280.4376,1199.9994 H 1200 V 0 Z"
     fill="#ce1126"
     id="path2"
     style="stroke-width:1.3363"
     sodipodi:nodetypes="cccccccccccccc" />
</svg>
